public/assets/techs/mongodb.svg

<svg width="20" height="20" viewBox="0 0 20 20" fill="none" xmlns="http://www.w3.org/2000/svg">
<g clip-path="url(#clip0_310_24)">
<path d="M10.4266 20.0108C10.3808 20.0108 10.3358 20.0033 10.2908 19.9883L9.79164 19.8167C9.6208 19.7583 9.50664 19.5942 9.5108 19.4142C9.5108 19.4008 9.5333 18.2 9.2708 17.46C8.93164 17.1933 8.1258 16.505 7.33497 15.4283C7.05997 15.0533 6.8083 14.6592 6.5883 14.2583C5.89914 13.0017 5.50997 11.6633 5.43164 10.2792C5.41414 9.96083 5.4108 9.64083 5.42664 9.31333C5.57497 6.09417 6.86497 3.17 8.96414 1.2925C9.30164 0.989999 9.47747 0.702499 9.53414 0.361666C9.56497 0.169999 9.7258 0.0241661 9.92164 0.0133328C10.13 -0.0150005 10.2925 0.128333 10.3466 0.315833C10.4408 0.650833 10.6141 1.01583 10.8216 1.31583C10.8925 1.45083 11.0725 1.64417 11.2316 1.81333C12.0133 2.64667 13.6391 4.38167 14.4191 7.92833C15.195 12.6 13.0341 15.485 11.6775 16.7917C11.3783 17.0833 11.1441 17.2658 11.03 17.3525C10.9475 17.4608 10.8966 17.565 10.8733 17.6692C10.7675 18.1575 10.8141 19.2033 10.8416 19.565C10.8516 19.705 10.7908 19.84 10.6808 19.9258C10.6075 19.9808 10.5175 20.0108 10.4266 20.0108ZM9.9358 1.46667C9.8208 1.61917 9.68247 1.76583 9.5208 1.91167C7.58664 3.64083 6.3983 6.3525 6.25914 9.35167C6.24414 9.65083 6.24747 9.94167 6.26414 10.2308C6.3358 11.49 6.6908 12.7108 7.31997 13.8575C7.52247 14.2258 7.75414 14.5892 8.00747 14.935C8.81997 16.0417 9.63664 16.6942 9.86747 16.8683C9.92664 16.9125 9.9733 16.9717 10.0016 17.0408C10.04 17.1317 10.0741 17.2292 10.1041 17.33C10.1675 17.1425 10.27 16.9633 10.4141 16.7867C10.4358 16.7592 10.4625 16.7342 10.4908 16.7133C10.5683 16.6575 10.7958 16.4875 11.0691 16.23C12.3383 14.9975 14.3108 12.3592 13.6016 8.08583C12.8741 4.78417 11.41 3.2225 10.6241 2.3825C10.3591 2.1 10.1841 1.91333 10.0983 1.72167C10.0433 1.64333 9.9883 1.5575 9.9358 1.46667Z" fill="#EEEEEE"/>
</g>
<defs>
<clipPath id="clip0_310_24">
<rect width="20" height="20" fill="white"/>
</clipPath>
</defs>
</svg>

<svg xmlns="http://www.w3.org/2000/svg" width="20" height="20" fill="none" xmlns:v="https://vecta.io/nano"><g clip-path="url(#A)"><path d="M10.427 20.011c-.046 0-.091-.008-.136-.023l-.499-.172c-.171-.058-.285-.223-.281-.402 0-.013.022-1.214-.24-1.954-.339-.267-1.145-.955-1.936-2.032a10.66 10.66 0 0 1-.747-1.17c-.689-1.257-1.078-2.595-1.157-3.979l-.005-.966c.148-3.219 1.438-6.143 3.537-8.021.338-.303.513-.59.57-.931.031-.192.192-.337.388-.348.208-.028.371.115.425.303a3.5 3.5 0 0 0 .475 1c.071.135.251.328.41.498.782.833 2.408 2.568 3.188 6.115.776 4.672-1.385 7.557-2.742 8.863-.299.292-.533.474-.648.561a.82.82 0 0 0-.157.317c-.106.488-.059 1.534-.032 1.896a.42.42 0 0 1-.161.361c-.073.055-.163.085-.254.085zM9.936 1.467c-.115.153-.253.299-.415.445-1.934 1.729-3.123 4.441-3.262 7.44-.015.299-.012.59.005.879.072 1.259.427 2.48 1.056 3.627a9.92 9.92 0 0 0 .688 1.078c.813 1.107 1.629 1.759 1.86 1.933a.41.41 0 0 1 .134.172 2.82 2.82 0 0 1 .103.289c.063-.187.166-.367.31-.543a.4.4 0 0 1 .077-.073c.078-.056.305-.226.578-.483 1.269-1.232 3.242-3.871 2.532-8.144-.727-3.302-2.192-4.863-2.977-5.703-.265-.282-.44-.469-.526-.661l-.162-.255z" fill="#38aa52"/></g><defs><clipPath id="A"><path fill="#fff" d="M0 0h20v20H0z"/></clipPath></defs></svg>
